X:68
T:T040B- Wearing of the Green
S:Dublin Monthly Magazine, 1841
Q:1/4=160
L:1/8
M:2/4
K:F
F3/2G/|A3/2A/ A3/2A/|Ac cd|A3/2G/ G3/2G/|G2 A3/2c/|dc df|\
d3/2c/ AF|G3/2A/ FF|F2F3/2G/|A3/2A/ A3/2A/|Ac cd|\
B3/2A/ G3/2F/|G2A3/2c/|dc fe|d3/2c/ AF|A3/2G/ FF|F2||\
A3/2c/|d3/2d/ d3/2d/|d2 f3/2d/|d3/2c/ c3/2d/|c2A3/2c/|\
B3/2A/ B3/2c/|dc A3/2F/|G3/2^F/ G3/2A/|G2 F3/2G/|\
A3/2A/ A3/2A/|Ac cd|A3/2G/ G3/2A/|G2 A3/2c/|d3/2c/ fe|\
dc AF|A3/2G/ FF|F2||]

